assets/Orange book/Flat/orange_book_flat.svg

<svg width="32" height="32" viewBox="0 0 32 32" fill="none" xmlns="http://www.w3.org/2000/svg">
<path d="M8 26H27V4C27 2.89543 26.1046 2 25 2H8V26Z" fill="#FF6723"/>
<path d="M6 27H27V29H6V27Z" fill="#D3D3D3"/>
<path d="M6.5 2C5.67157 2 5 2.67157 5 3.5V28H6C6 27.4477 6.44772 27 7 27H8V2H6.5Z" fill="#990838"/>
<path d="M6.5 26C5.67157 26 5 26.6716 5 27.5V28.5C5 29.3284 5.67157 30 6.5 30H25.5C26.1531 30 26.7087 29.5826 26.9146 29H7C6.44772 29 6 28.5523 6 28C6 27.4477 6.44772 27 7 27H27V26H6.5Z" fill="#990838"/>
</svg>

<svg xmlns="http://www.w3.org/2000/svg" width="32" height="32" fill="none"><path fill="#FF6723" d="M8 26h19V4a2 2 0 0 0-2-2H8v24Z"/><path fill="#D3D3D3" d="M6 27h21v2H6v-2Z"/><path fill="#990838" d="M6.5 2A1.5 1.5 0 0 0 5 3.5V28h1a1 1 0 0 1 1-1h1V2H6.5Z"/><path fill="#990838" d="M6.5 26A1.5 1.5 0 0 0 5 27.5v1A1.5 1.5 0 0 0 6.5 30h19a1.5 1.5 0 0 0 1.415-1H7a1 1 0 1 1 0-2h20v-1H6.5Z"/></svg>
